X:1
T:The Well-Tempered Clavier Book II - X
T:BWV 879    (A = 415 Hz)
T:J. S. Bach
%%score { ( 1 3 4 ) | 2 }
L:1/8
Q:1/4=40
M:3/8
K:G
V:1 treble 
V:3 treble 
V:4 treble 
V:2 bass 
V:1
"^Praeludium" z/ G/A/B/c/A/ | B/G/F/E/^D/A/ | G/4F/4E/e z | ^d/4^c/4B/a z | z/ G/A/B/c/A/ | %5
 B/G/F/E/^D/A/ | G/B/c/d/e/c/ | d/B/A/G/F/c/ | B/d/e/f/g/e/ | f/d/^c/B/^A/e/ | d/f/e/d/^c/B/ | %11
 ^A/4^G/4F/e z | z/ d/e/f/g/e/ | f/d/^c/B/^A/e/ | d/B/^c/d/e/c/ | d/B/A/G/F/c/ | B/G/e/B/c/a/ | %17
 B/d/gB/4A/4B/4A/4 | G/E/c/G/A/f/ | G/B/eG/4F/4G/4F/4 | E/G/A/B/c/A/ | B/4A/4G/=f z | %22
 z/ E/F/G/A/F/ | G/D/E/F/G- | G/F/^G/A/B/G/ | A/E/F/G/A- | A/^G/^A/B/^c/A/ | B/F/^G/^A/B- | %28
 B/^A/B/^c/d/B/ | ^c/B/^A/^G/F/E/ | D/F/^G/^A/B/G/ | ^A/^G/F/E/D/^C/ | %32
 ^C/4B,/4C/4B,/4C/4B,/4C/4B,/4C/4B,/4C/4B,/4 | ^C/4B,/4C/4B,/4C/4B,/4C/4B,/4C/4B,/4C/4B,/4 | %34
 ^C/4B,/4C/4B,/4C/4B,/4C/4B,/4C/4B,/4C/4B,/4 | ^C/4B,/4C/4B,/4C/4B,/4C/4B,/4C/4B,/4C/4B,/4 | %36
 ^C/4B,/4C/4B,/4E/4D/4E3/2- | E/F/E/D/^C/E/ | ^A,^c/4B/4c3/2- | c/d/^c/B/^A/c/ | Fg/4f/4g3/2- | %41
 g/f/e/d/^c/e/ | e/4d/4c/4d/4e/4d/4e/4d/4e/4d/4e/4d/4 | e/4d/4^c/B/A/^G/B/ | =F/d/^c/B/^A/c/ | %45
 e/g/f/e/d/f/ | B^cB/4^A/4G/4A/4 | B3 | z/ G/A/B/c/A/ | B/G/F/E/^D/A/ | G/4F/4E/e z | %51
 ^d/4^c/4B/a z | z/ G/A/B/c/A/ | B/G/F/E/^D/A/ | G/B/c/d/e/c/ | d/B/A/G/F/c/ | B/d/e/f/g/e/ | %57
 f/d/^c/B/^A/e/ | d/f/e/d/^c/B/ | ^A/4^G/4F/e z | z/ d/e/f/g/e/ | f/d/^c/B/^A/e/ | d/B/^c/d/e/c/ | %63
 d/B/A/G/F/c/ | B/G/e/B/c/a/ | B/d/gB/4A/4B/4A/4 | G/E/c/G/A/f/ | G/B/eG/4F/4G/4F/4 | %68
 E/G/A/B/c/A/ | B/4A/4G/=f z | z/ E/F/G/A/F/ | G/D/E/F/G- | G/F/^G/A/B/G/ | A/E/F/G/A- | %74
 A/^G/^A/B/^c/A/ | B/F/^G/^A/B- | B/^A/B/^c/d/B/ | ^c/B/^A/^G/F/E/ | D/F/^G/^A/B/G/ | %79
 ^A/^G/F/E/D/^C/ | ^C/4B,/4C/4B,/4C/4B,/4C/4B,/4C/4B,/4C/4B,/4 | %81
 ^C/4B,/4C/4B,/4C/4B,/4C/4B,/4C/4B,/4C/4B,/4 | ^C/4B,/4C/4B,/4C/4B,/4C/4B,/4C/4B,/4C/4B,/4 | %83
 ^C/4B,/4C/4B,/4C/4B,/4C/4B,/4C/4B,/4C/4B,/4 | ^C/4B,/4C/4B,/4E/4D/4E3/2- | E/F/E/D/^C/E/ | %86
 ^A,^c/4B/4c3/2- | c/d/^c/B/^A/c/ | Fg/4f/4g3/2- | g/f/e/d/^c/e/ | %90
 e/4d/4c/4d/4e/4d/4e/4d/4e/4d/4e/4d/4 | e/4d/4^c/B/A/^G/B/ | =F/d/^c/B/^A/c/ | e/g/f/e/d/f/ | %94
 B^cB/4^A/4G/4A/4 | B3 | f3- | fe/f/g | ff/4e/4f/4e/4A | dd/4c/4B/c- | c/B/A/G/F/A/ | %101
 G/B/c/d/e/A/ | d/^G/A/B/c/F/ | B/E/F/^G/A/^D/ | ^GB/4A/4G/4A/4B | E/e/d/c/B/d/ | ce/4d/4c/4d/4e | %107
 A/a/g/=f/e/g/ | =fga- | a/d/c/B/A/c/ | Bcd- | d/G/c/d/e- | e/c/d/e/=f- | f/g/=f/e/d/f/ | %114
 e/E/F/^G/A/F/ | d/F/^G/A/B/G/ | c/^G/A/B/c/A/ | c/B/A/^G/A- | A/B/A/4B/4c/4B/4c/4B/4A/ | A3 | %120
 z/ d/c/B/A/c/ | B/d/e/f/g/^c/ | f/B/c/d/e/A/ | d/G/A/B/c/F/ | Bc/4^d/4e/4d/4e/4d/4^c/4d/4 | %125
 eg/4f/4e/4f/4g- | g/f/e/^d/e- | e/d/c/B/c/a/ | B/D/E/F/G- | G/F/^G/A/B/G/ | A/E/F/G/A- | %131
 A/G/A/B/c/A/ | B/^d/e/f/g/e/ | f/e/^d/^c/B/A/ | G/B/^c/^d/e/c/ | ^d/^c/B/A/G/F/ | %136
 F/4E/4F/4E/4F/4E/4F/4E/4F/4E/4F/4E/4 | F/4E/4F/4E/4F/4E/4F/4E/4F/4E/4F/4E/4 | %138
 F/4E/4F/4E/4F/4E/4F/4E/4F/4E/4F/4E/4 | F/4E/4F/4E/4d/4c/4d3/2- | d/e/d/c/B/d/ | cea- | %142
 a/b/a/g/f/a/ | ^dc'/4b/4c'3/2- | c'/b/a/g/f/a/ | g3- | g/f/e/d/^c/e/ | ^A/g/f/e/^d/f/ | %148
 A/c/B/A/G/B/ | EF/4E/4F/E/4^D/4C/4D/4 | E/^G/A/B/c/A/ | B/A/^G/F/E/d/ | ^c/^d/e/f/g/e/ | %153
 f/e/^d/^c/B/A/ | GA/4G/4A/G/4D/4E/4F/4 | E3 | f3- | fe/f/g | ff/4e/4f/4e/4A | dd/4c/4B/c- | %160
 c/B/A/G/F/A/ | G/B/c/d/e/A/ | d/^G/A/B/c/F/ | B/E/F/^G/A/^D/ | ^GB/4A/4G/4A/4B | E/e/d/c/B/d/ | %166
 ce/4d/4c/4d/4e | A/a/g/=f/e/g/ | =fga- | a/d/c/B/A/c/ | Bcd- | d/G/c/d/e- | e/c/d/e/=f- | %173
 f/g/=f/e/d/f/ | e/E/F/^G/A/F/ | d/F/^G/A/B/G/ | c/^G/A/B/c/A/ | c/B/A/^G/A- | %178
 A/B/A/4B/4c/4B/4c/4B/4A/ | A3 | z/ d/c/B/A/c/ | B/d/e/f/g/^c/ | f/B/c/d/e/A/ | d/G/A/B/c/F/ | %184
 Bc/4^d/4e/4d/4e/4d/4^c/4d/4 | eg/4f/4e/4f/4g- | g/f/e/^d/e- | e/d/c/B/c/a/ | B/D/E/F/G- | %189
 G/F/^G/A/B/G/ | A/E/F/G/A- | A/G/A/B/c/A/ | B/^d/e/f/g/e/ | f/e/^d/^c/B/A/ | G/B/^c/^d/e/c/ | %195
 ^d/^c/B/A/G/F/ | F/4E/4F/4E/4F/4E/4F/4E/4F/4E/4F/4E/4 | F/4E/4F/4E/4F/4E/4F/4E/4F/4E/4F/4E/4 | %198
 F/4E/4F/4E/4F/4E/4F/4E/4F/4E/4F/4E/4 | F/4E/4F/4E/4d/4c/4d3/2- | d/e/d/c/B/d/ | cea- | %202
 a/b/a/g/f/a/ | ^dc'/4b/4c'3/2- | c'/b/a/g/f/a/ | g3- | g/f/e/d/^c/e/ | ^A/g/f/e/^d/f/ | %208
 A/c/B/A/G/B/ | EF/4E/4F/E/4^D/4C/4D/4 | E/^G/A/B/c/A/ | B/A/^G/F/E/d/ | ^c/^d/e/f/g/e/ | %213
 f/e/^d/^c/B/A/ | GA/4G/4A/G/4D/4E/4F/4 | !fermata!E3 |[M:2/2]"^Fuga" z2 z2 z2 (3z EF | %217
 G/4F/4G3/2 A/G/F/G/ A2 B/A/G/A/ | B2 G2 E2 c2- | c2 (3:2:2B2 ^d e2 A2- | A2 (3:2:2G2 ^d e2 F2- | %221
 (3FGA (3GFE (3^DcB (3AGF | (3GAB (3AGF (3Eed (3^cB^A | (3Bdf ^g2 (3^ce=g ^a2 | %224
 (3df^a b2- (3b=ag (3fe^d | e4 d4 | d/4^c/4d/4c/4d/4c/4d/4c/4 d/4c/4d/4c/4d/4c/4d/4c/4 B4 | %227
 ^A2 B2 ^c4- | c2 (3:2:2f2 ^A B4- | (3BGB ^c2- (3cA=c ^d2- | (3dB^d e2 e4- | %231
 (3e^de f2- (3fe=d (3^c^de | (3^def B2- (3BAG (3ABc- | c2 (3BAG A2 ^D2 | %234
 B4- (3:2:2B2 E (3:2:2^D2 E | c4- (3:2:2c2 F (3:2:2E2 F | d4- (3dGA (3Bcd | e4- (3eFG (3ABc | %238
 d4- (3dEF (3GAB | c4- (3cDE (3FGA | B2 c/B/A/B/ c2 d/c/B/c/ | d2 B2 G2 e/4d/4e3/2- | %242
 e2 (3:2:2d2 f g2 c2- | c2 (3:2:2B2 f g2 A2- | (3ABc (3BAG (3Fed (3cBA | (3Bcd (3cBA (3Ggf (3ed^c | %246
 d2 z2 ^c2 z2 | c2 z2 B2 d2 | g4 f4 | e4 d4 | ^c2 d2 e4- | (3:2:2e2 ^c (3:2:2d2 e f4- | %252
 (3:2:2f2 ^d (3:2:2e2 f g2 (3B^A^G | ^A2 (3d^cB ^a2 d/4c/4B/4c/4-c | f6 e2- | (3efe (3d^cB z2 F2 | %256
 B4 a4- | a2 g2 f4- | f4 (3z e^G ^A2 | (3df^A B2- B4- | (3B^cB (3^A^GF (3z B=A (3=GFE | %261
 (3^AF^G (3AB^c (3d^CD (3EF=G- | G2 (3FED E2 ^A,2 | F4- (3:2:2F2 B, (3:2:2^A,2 B, | %264
 G4- (3:2:2G2 ^C (3:2:2B,2 C | A4- A2 ^D2 | E2 z2 c2 z2 | B2 (3z ed (3cBA (3^GAB | %268
 (3EFE (3:2:2B2 ^d e2 (3^C^DE | (3^DEF (3:2:2G2 ^d e2 F2- | (3FGA (3GFE z2 ^d2 | e4 (3z fe (3dcB | %272
 (3cde (3dcB (3Aba (3gfe | (3fga (3gfe (3ded (3cBA | (3Bcd (3cBA G z z2 | z4 z2 (3z AB | %276
 c2 d/c/B/c/ d2 e/d/c/d/ | e2 c2 A2 =f2- | f2 (3:2:2e2 ^g a2 d2- | d2 (3:2:2c2 ^g a2 B2- | %280
 (3Bcd (3cBA (3^G=fe (3dcB | (3cde (3dcB A4- | A4- (3A^DE (3FGA | G4- (3G^DE (3GFA | %284
 (3:2:2^D2 E F2- (3FB,D (3FBD | E4- (3EG^A (3^c^de | E2 E/4^D/4E/4D/4E/4D/4E/4!fermata!D/4 z4 | %287
 (3z B,^C (3^DEF (3GcB (3AGF | (3Ege ^c2 (3Faf ^d2 | (3Gbg (3ed^c d4 | (3cFE (3^DEF (3GAB (3cBA | %291
 (3^def (3BcA (3GFG (3ABc- | c2 (3BAG A4- | (3:2:2A2 F (3:2:2B2 A G4- | %294
 (3GBA (3GFE (3:2:2^D2 c- (3cED | (3BEG ^c2- (3:2:2c2 A ^d2- | (3:2:2d2 B e2- (3:2:2e2 ^d f2- | %297
 (3:2:2f2 e g2 z4 | (3z cf (3a^df (3cBd (3fAc | %299
 (3GFA (3cFA (3:2:9E(4:4:4E/4^D/4E/4D/4(4:4:4e/4^d/4c/4d/4 e2- | (3edc (3BAG (3AFG (3ABc | %301
 (3cBA (3G^DE- (6:4:4EF/A/c (12:8:5(1:1:4E/D/E/D/E | E8 |] %303
V:2
 E,E,, z | z2 z | z/ G,/A,/B,/C/A,/ | B,/G,/F,/E,/^D,/A,/ | G,/E,/F,/G,/A,/F,/ | G,A,B, | E,D,C, | %7
 B,,C,D, | G,,F,,E,, | D,,E,,F,, | B,,/D,/E,/F,/G,/E,/ | F,/D,/^C,/B,,/^A,,/E,/ | %12
 D,/B,,/^C,/D,/E,/C,/ | D,E,F, | B,,B,^A, | B,F,D, | G,/B,/C/D/E/C/ | D/B,/A,/G,/F,/C/ | %18
 B,/G,/A,/B,/C/A,/ | B,/G,/F,/E,/^D,/A,/ | G,/E,/F,/G,/A,/F,/ | G,/E,/D,/C,/B,,/=F,/ | %22
 E,/G,,/A,,/B,,/C,- | C,/B,,/^C,/D,/E,/C,/ | D,/A,,/B,,/C,/D,- | D,/^C,/^D,/E,/F,/D,/ | %26
 E,/B,,/^C,/D,/E,- | E,/D,/E,/F,/G,/E,/ | E,/4F,/4G,/4F,/4G,/4F,/4G,/4F,/4G,/4F,/4G,/4F,/4 | %29
 G,/4F,/4G,/4F,/4G,/4F,/4G,/4F,/4G,/4F,/4G,/4F,/4 | %30
 G,/4F,/4G,/4F,/4G,/4F,/4G,/4F,/4G,/4F,/4G,/4F,/4 | %31
 G,/4F,/4G,/4F,/4G,/4F,/4G,/4F,/4G,/4F,/4G,/4F,/4 | z/ ^D,/E,/F,/G,/E,/ | F,/E,/^D,/^C,/B,,/A,,/ | %34
 G,,/B,,/^C,/^D,/E,/C,/ | ^D,/^C,/B,,/A,,/G,,/F,,/ | E,,/D,/^C,/B,,/^A,,/C,/ | F,, G,2- | %38
 G,/F,/E,/D,/^C,/E,/ | ^A,, E2- | E/D/^C/B,/^A,/C/ | F,^G,^A, | B,/^A,/B,/^C/D/B,/ | %43
 =F,/^F,/^G,/A,/B,/G,/ | ^C,=F,^F, | G,^A,,B,, | G,,E,,F,, | B,,/^C,/^D,/E,/F,/D,/ | E,E,, z | %49
 z z2 | z/ G,/A,/B,/C/A,/ | B,/G,/F,/E,/^D,/A,/ | G,/E,/F,/G,/A,/F,/ | G,A,B, | E,D,C, | B,,C,D, | %56
 G,,F,,E,, | D,,E,,F,, | B,,/D,/E,/F,/G,/E,/ | F,/D,/^C,/B,,/^A,,/E,/ | D,/B,,/^C,/D,/E,/C,/ | %61
 D,E,F, | B,,B,^A, | B,F,D, | G,/B,/C/D/E/C/ | D/B,/A,/G,/F,/C/ | B,/G,/A,/B,/C/A,/ | %67
 B,/G,/F,/E,/^D,/A,/ | G,/E,/F,/G,/A,/F,/ | G,/E,/D,/C,/B,,/=F,/ | E,/G,,/A,,/B,,/C,- | %71
 C,/B,,/^C,/D,/E,/C,/ | D,/A,,/B,,/C,/D,- | D,/^C,/^D,/E,/F,/D,/ | E,/B,,/^C,/D,/E,- | %75
 E,/D,/E,/F,/G,/E,/ | E,/4F,/4G,/4F,/4G,/4F,/4G,/4F,/4G,/4F,/4G,/4F,/4 | %77
 G,/4F,/4G,/4F,/4G,/4F,/4G,/4F,/4G,/4F,/4G,/4F,/4 | %78
 G,/4F,/4G,/4F,/4G,/4F,/4G,/4F,/4G,/4F,/4G,/4F,/4 | %79
 G,/4F,/4G,/4F,/4G,/4F,/4G,/4F,/4G,/4F,/4G,/4F,/4 | z/ ^D,/E,/F,/G,/E,/ | F,/E,/^D,/^C,/B,,/A,,/ | %82
 G,,/B,,/^C,/^D,/E,/C,/ | ^D,/^C,/B,,/A,,/G,,/F,,/ | E,,/D,/^C,/B,,/^A,,/C,/ | F,, G,2- | %86
 G,/F,/E,/D,/^C,/E,/ | ^A,, E2- | E/D/^C/B,/^A,/C/ | F,^G,^A, | B,/^A,/B,/^C/D/B,/ | %91
 =F,/^F,/^G,/A,/B,/G,/ | ^C,=F,^F, | G,^A,,B,, | G,,E,,F,, | B,,3 | z/ B,/A,/G,/F,/A,/ | %97
 G,/B,/^C/^D/E/A,/ | D/G,/A,/B,/C/F,/ | B,/E,/F,/G,/A,/_E,/ | G,A,B, | E,D,C, | B,,E,,A,, | %103
 D,,/C,,/D,,/E,,/=F,, | E,,/E,/D,/C,/B,,/D,/ | C,E,/4D,/4C,/4D,/4E, | A,,/A,/G,/=F,/E,/G,/ | %107
 =F,G,A, | D,/D/C/B,/A,/C/ | B,CD | z/ G,/=F,/E,/D,/F,/ | G,,/=F,/E,/D,/C,/E,/ | %112
 G,,/E,/D,/C,/B,,/D,/ | G,,A,,B,, | C,/D/C/B,/A,/C/ | B,,/C/B,/A,/^G,/B,/ | A,,/B,/A,/^G,/F,/A,/ | %117
 ^D,E,=F, | E,/D,/E,E,, | A,,/A,/G,/F,/E,/G,/ | F,D,F, | G,F,E, | D,/G,/A,/B,/C- | C/B,/A,/G,/A,- | %124
 A,/B,/A,/G,/F,/A,/ | G,/B,/^C/^D/E/A,/ | D/G,/A,/B,/C/F,/ | B,/E,/F,/G,/A,/D,/ | %128
 G,/F,/G,/A,/B,/^C/ | D/A,/B,/C/D- | D/^C/^D/E/F/D/ | E/E,/F,/G,/A,/F,/ | G,F,E, | %133
 C/4B,/4C/4B,/4C/4B,/4C/4B,/4C/4B,/4C/4B,/4 | C/4B,/4C/4B,/4C/4B,/4C/4B,/4C/4B,/4C/4B,/4 | %135
 C/4B,/4C/4B,/4C/4B,/4C/4B,/4C/4B,/4C/4B,/4 | z/ ^G,/A,/B,/C/A,/ | B,/A,/^G,/F,/E,/D,/ | %138
 C,/E,/F,/^G,/A,/F,/ | ^G,/F,/E,/D,/C,/B,,/ | A,,E,^G, | A,/B,/A,/G,/F,/A,/ | _E,C/4B,/4C3/2- | %143
 C/A,/F,/A,/^D,/F,/ | B,,E/4^D/4E/4D/4E/4D/4^C/4D/4 | E/^D/E/F/G/E/ | ^A,/B,/^C/D/E/C/ | F,^A,B, | %148
 C^D,E, | C,A,,B,, | C,,/E,,/F,,/^G,,/A,,/F,,/ | ^G,,/B,,/C,/D,/E,/F,/ | G,F,E, | ^D,B,,D, | %154
 E,A,,B,, | E,,3 | z/ B,/A,/G,/F,/A,/ | G,/B,/^C/^D/E/A,/ | D/G,/A,/B,/C/F,/ | %159
 B,/E,/F,/G,/A,/_E,/ | G,A,B, | E,D,C, | B,,E,,A,, | D,,/C,,/D,,/E,,/=F,, | E,,/E,/D,/C,/B,,/D,/ | %165
 C,E,/4D,/4C,/4D,/4E, | A,,/A,/G,/=F,/E,/G,/ | =F,G,A, | D,/D/C/B,/A,/C/ | B,CD | %170
 z/ G,/=F,/E,/D,/F,/ | G,,/=F,/E,/D,/C,/E,/ | G,,/E,/D,/C,/B,,/D,/ | G,,A,,B,, | C,/D/C/B,/A,/C/ | %175
 B,,/C/B,/A,/^G,/B,/ | A,,/B,/A,/^G,/F,/A,/ | ^D,E,=F, | E,/D,/E,E,, | A,,/A,/G,/F,/E,/G,/ | %180
 F,D,F, | G,F,E, | D,/G,/A,/B,/C- | C/B,/A,/G,/A,- | A,/B,/A,/G,/F,/A,/ | G,/B,/^C/^D/E/A,/ | %186
 D/G,/A,/B,/C/F,/ | B,/E,/F,/G,/A,/D,/ | G,/F,/G,/A,/B,/^C/ | D/A,/B,/C/D- | D/^C/^D/E/F/D/ | %191
 E/E,/F,/G,/A,/F,/ | G,F,E, | C/4B,/4C/4B,/4C/4B,/4C/4B,/4C/4B,/4C/4B,/4 | %194
 C/4B,/4C/4B,/4C/4B,/4C/4B,/4C/4B,/4C/4B,/4 | C/4B,/4C/4B,/4C/4B,/4C/4B,/4C/4B,/4C/4B,/4 | %196
 z/ ^G,/A,/B,/C/A,/ | B,/A,/^G,/F,/E,/D,/ | C,/E,/F,/^G,/A,/F,/ | ^G,/F,/E,/D,/C,/B,,/ | A,,E,^G, | %201
 A,/B,/A,/G,/F,/A,/ | _E,C/4B,/4C3/2- | C/A,/F,/A,/^D,/F,/ | B,,E/4^D/4E/4D/4E/4D/4^C/4D/4 | %205
 E/^D/E/F/G/E/ | ^A,/B,/^C/D/E/C/ | F,^A,B, | C^D,E, | C,A,,B,, | C,,/E,,/F,,/^G,,/A,,/F,,/ | %211
 ^G,,/B,,/C,/D,/E,/F,/ | G,F,E, | ^D,B,,D, | E,A,,B,, | !fermata!E,,3 |[M:2/2] z6 z2 | z8 | z8 | %219
 z8 | z8 | z8 | z8 | z8 | z8 | z8 | z8 | z8 | z4 z2 (3z E,F, | G,2 A,/G,/F,/G,/ A,2 B,/A,/G,/A,/ | %230
 B,2 G,2 E,2 C2- | C2 (3:2:2B,2 ^D E2 A,2- | A,2 (3:2:2G,2 ^D E2 F,2- | %233
 (3F,G,A, (3G,F,E, (3^D,CB, (3A,G,F, | (3G,A,B, (3A,G,F, (3E,=DC (3B,A,G, | %235
 (3A,B,C (3B,A,G, (3F,ED (3CB,A, | (3B,CD (3CB,A, (3G,B,D G2 | C2 E2 (3F,A,C F2 | %238
 B,2 D2 (3E,G,B, E2 | A,2 C2 (3D,F,A, D2 | G,4 A,4 | B,2 z2 z4 | %242
 (3z A,G, (3F,G,A, (3z G,F, (3E,F,G, | (3z F,E, (3D,E,C, B,,2 ^C,2 | D,4 z2 D,2 | %245
 G,3- (3:2:2G,2 F,E, A,2 | (3D,F,A, B,2 (3E,G,A, ^C2 | (3F,G,A, D2 (3z CB, (3A,G,F, | %248
 (3E,G,B, (3^CEA, (3D,D=C (3B,A,G, | (3^C,E,G, (3A,^CF, (3B,,B,A, (3G,F,E, | A,4 z2 ^C2 | %251
 D4 z2 ^D2 | E4 z2 ^E2 | F4- (3FGF (3ED=C | D4- (3DED (3^CB,^A, | B,4- (3B,CB, (3A,G,F, | %256
 G,4- (3G,A,G, (3F,E,^D, | (3E,F,E, (3D,^C,B,, (3^A,,F,,^G,, (3A,,B,,C, | %258
 D,2 E,/D,/^C,/D,/ E,2 F,/E,/D,/E,/ | F,2 D,2 B,,2 G,/4F,/4G,3/2- | G,2 (3:2:2F,2 ^A, B,2 E,2- | %261
 E,2 (3:2:2D,2 ^A, z2 ^C,2- | (3C,D,E, (3D,^C,B,, (3^A,,G,F, (3E,D,C, | %263
 (3D,E,F, (3E,D,^C, (3B,,A,G, (3F,E,D, | (3E,F,G, (3F,E,D, (3^C,B,A, (3G,F,E, | %265
 (3F,G,A, (3G,F,E, (3^D,CB, (3A,G,F, | (3E,G,B, ^C2 (3F,A,=C ^D2 | (3G,B,^D E2 (3E,=DC (3B,A,^G, | %268
 A,4 G,4 | F,4 E,4 | ^D,2 E,2 F,2 B,,2 | E,2 F,2 G,2 ^G,2 | A,2 B,2 ^B,2 ^C2 | D,2 E,2 F,2 D,2 | %274
 G,2 A,2 B,2 G,2 | (3C,D,E, (3D,E,=F, (3E,^G,A, D,2 | C,2 =F,2 B,,4 | A,,2 z2 (3z B,C (3DE=F | %278
 (3^G,A,B, (3CDE (3F,G,A, (3B,CA, | (3^G,F,E, (3A,B,C (3=F,A,=G, (3F,G,E, | %280
 (3:2:2D,2 =F, (3:2:2E,2 ^D, E,4 | (3:2:2G,,2 E, (3:2:2A,2 B, (3:2:2C2 A, (3:2:2F,2 A, | %282
 (3B,,^C,^D, (3C,F,E, (3D,A,G, (3F,E,D, | (3E,F,G, (3F,E,_D, ^C,2 =C,2 | B,,8- | %285
 (3B,,^C,^D, (3E,F,G,- G,2- (3G,F,G, | B,,4 (3z C,B,, (3A,,G,,F,, | %287
 (3G,,A,,G,, (3F,,E,,^D,, E,,2 (3z E,,F,, | G,,2 A,,/G,,/F,,/G,,/ A,,2 B,,/A,,/G,,/A,,/ | %289
 B,,2 G,,2 E,,2 C,2- | C,2 (3:2:2B,,2 ^D, E,2 A,,2- | A,,2 (3:2:2G,,2 ^D, E,2 F,,2- | %292
 (3F,,G,,A,, (3G,,F,,E,, (3^D,,C,B,, (3A,,G,,F,, | (3G,,A,,B,, (3A,,G,,F,, (3E,,E,D, (3C,B,,^A,, | %294
 B,,8- | B,,2- (3B,,^A,B, B,,2- (3B,,A,B, | B,,2- (3B,,^A,B, B,,2- (3B,,A,B, | %297
 B,,2- (3B,,^A,B, (3F,G,^D, (3E,B,,C, | ^D,,2 z2 z4 | z4 !fermata!A,,2 (3z z ^A, | B,8- | %301
 (3B,^C^D (3E z ^A,, B,,4 | E,4- (3E,^D,E, E,,2 |] %303
V:3
 x3 | x3 | x3 | x3 | x3 | x3 | x3 | x3 | x3 | x3 | x3 | x3 | x3 | x3 | x3 | x3 | x3 | x3 | x3 | %19
 x3 | x3 | x3 | x3 | x3 | x3 | x3 | x3 | x3 | x3 | x3 | x3 | x3 | x3 | x3 | x3 | x3 | x3 | x3 | %38
 x3 | x3 | x3 | x3 | x3 | x3 | x3 | x3 | x3 | x3 | x3 | x3 | x3 | x3 | x3 | x3 | x3 | x3 | x3 | %57
 x3 | x3 | x3 | x3 | x3 | x3 | x3 | x3 | x3 | x3 | x3 | x3 | x3 | x3 | x3 | x3 | x3 | x3 | x3 | %76
 x3 | x3 | x3 | x3 | x3 | x3 | x3 | x3 | x3 | x3 | x3 | x3 | x3 | x3 | x3 | x3 | x3 | x3 | x3 | %95
 x3 | x3 | x3 | x3 | x3 | x3 | x3 | x3 | x3 | x3 | x3 | x3 | x3 | x3 | x3 | x3 | x3 | x3 | x3 | %114
 x3 | x3 | x3 | x3 | x3 | x3 | x3 | x3 | x3 | x3 | x3 | x3 | x3 | x3 | x3 | x3 | x3 | x3 | x3 | %133
 x3 | x3 | x3 | x3 | x3 | x3 | x3 | x3 | x3 | x3 | x3 | x3 | x3 | x3 | x3 | x3 | x3 | x3 | x3 | %152
 x3 | x3 | x3 | x3 | x3 | x3 | x3 | x3 | x3 | x3 | x3 | x3 | x3 | x3 | x3 | x3 | x3 | x3 | x3 | %171
 x3 | x3 | x3 | x3 | x3 | x3 | x3 | x3 | x3 | x3 | x3 | x3 | x3 | x3 | x3 | x3 | x3 | x3 | x3 | %190
 x3 | x3 | x3 | x3 | x3 | x3 | x3 | x3 | x3 | x3 | x3 | x3 | x3 | x3 | x3 | x3 | x3 | x3 | x3 | %209
 x3 | x3 | x3 | x3 | x3 | x3 | x3 |[M:2/2] x8 | x8 | x8 | x8 | x8 | x8 | z4 z2 (3z B,^C | %223
 D/4^C/4D/-D E/D/C/D/ E2 F/E/D/E/ | F2 D2 B,2 G2- | G2 (3:2:2F2 ^A B2 E2- | %226
 E2 (3:2:2D2 ^A B2 ^C2- | (3CDE (3D^CB, (3^A,GF (3EDC | (3DEF (3ED^C (3B,=AG (3FE^D | E4 F4 | %230
 G4 (3^G=dc (3BA=G | A4 G4 | F4 E4 | ^D2 E2 F4- | (3:2:2F2 ^D (3:2:2E2 F G4- | %235
 (3:2:2G2 E (3:2:2F2 G A4- | (3:2:2A2 F (3:2:2G2 A B2 z2 | (3z dc (3BAG A2 z2 | %238
 (3z cB (3AGF G2 z2 | (3z BA (3GFE F2 z2 | (3z[I:staff +1] B,D E2- (3ECE F2- | %241
 (3FDF (3GG,B, (3EE,F, (3G,A,B, | C4 B,4 | A,4[I:staff -1] (3z[I:staff +1] D,G,- (3G,F,E, | %244
 F,2 G,2 A,2 F,2 | (3:2:2G,2 B, B,4 (3^CDE |[I:staff -1] F2 G/F/E/F/ G2 A/G/F/G/ | A2 F2 D2 B2- | %248
 B2 (3:2:2A2 ^c d2 G2- | G2 (3:2:2F2 ^c d2 E2- | %250
 (3EFG (3FE[I:staff +1]D (3^C[I:staff -1]BA[I:staff +1] (3GFE | %251
 (3FGA (3GFE (3D[I:staff -1]=cB[I:staff +1] (3AGF | (3GAB (3AGF (3E[I:staff -1]=d^c c2- | %253
 (3cde B2 ^c2 c2- | (3ced (3^cBA B2 c2 |[I:staff +1] F4[I:staff -1] f4 | (3fgf (3e^d^c- c2 (3def | %257
 B2 e2- (3eed (3^cB^A | (3BdB ^G2 ^c4- | c2 B2- (3B=AG (3FE^D |[I:staff +1] E4 D4 | ^C4 B,4 | %262
[I:staff -1] ^A,2 B,2 ^C4- | (3:2:2C2 ^A, (3:2:2B,2 ^C D4 | (3:2:2D2 B, (3:2:2^C2 D E4- | %265
 (3:2:2E2 ^C (3:2:2^D2 E F2- (3FEF | G2 A/G/F/G/ A2 B/A/G/A/ | B2 G2 E2 c2- | %268
 c2[I:staff +1] (3^DEF (3B,E=D[I:staff -1] A2- | A2[I:staff +1] (3B,CA, (3G,A,B, (3CB,A, | %270
 B,4[I:staff -1] (3^DcB (3AGF | (3GAB (3AGF[I:staff +1] E4- | %272
 (3:2:2E2 F- (3:2:2F2 ^G[I:staff -1] A2[I:staff +1] ^E2- | (3:2:2E2 D- (3:2:2D2 ^C D4- | %274
 (3:2:2D2 E- (3:2:2E2[I:staff -1] F (3GAG (3=FED | (3E=FG (3FED (3CDC[I:staff +1] (3B,A,^G, | %276
 A,4- (3A,D,^G, G,2 |[I:staff -1] (3z[I:staff +1] C,D, (3E,^F,^G, A,[I:staff -1] z z2 | d4 c4 | %279
 B4 A4 | (3:2:2G2[I:staff +1] ^G, (3:2:2A,2 C (3B,DC (3B,A,G, | %281
 A,[I:staff -1] z z2 (3z GF (3E^D^C | (3^DEF (3ED^C B,4- | %283
 (3:2:2B,2 B, (3:2:2C2 B,[I:staff +1] ^A,2 =A,2- | (3A,[I:staff -1]CB,[I:staff +1] (3A,G,F, G,4- | %285
 G,2[I:staff -1] z2[I:staff +1] ^A,,4 | %286
 G,2 G,/4F,/4G,/4F,/4G,/4F,/4G,/4!fermata!F,/4[I:staff -1] z4 | x8 | x8 | z4 (3z B^G (3EFG | %290
 A4 G4 | F4 E4 | ^D2 E2 F4- | (3:2:2F2 ^D (3:2:2B,2 D E4- | E2 z2 (3z[I:staff +1] ^D,E, (3F,G,A, | %295
 (3:2:2G,[I:staff -1] E2- E2- (3:2:2E F2- F2- | (3:2:2F G2- G2- (3:2:2G A2- A2- | %297
 (3:2:2A B2- B2 z4 | x8 | z4[I:staff +1] [F,B,]2[I:staff -1] (3z z[I:staff +1] F | %300
 G2- (3GFE (3:2:2D2 E (3:2:2F2 E | ^D[I:staff -1] z (3z[I:staff +1] F,G, F,2- (3F,G,A, | %302
 (3:2:2A, ^G,2- (3G,[I:staff -1]^G,A,- A,2 ^G,2 |] %303
V:4
 x3 | x3 | x3 | x3 | x3 | x3 | x3 | x3 | x3 | x3 | x3 | x3 | x3 | x3 | x3 | x3 | x3 | x3 | x3 | %19
 x3 | x3 | x3 | x3 | x3 | x3 | x3 | x3 | x3 | x3 | x3 | x3 | x3 | x3 | x3 | x3 | x3 | x3 | x3 | %38
 x3 | x3 | x3 | x3 | x3 | x3 | x3 | x3 | x3 | x3 | x3 | x3 | x3 | x3 | x3 | x3 | x3 | x3 | x3 | %57
 x3 | x3 | x3 | x3 | x3 | x3 | x3 | x3 | x3 | x3 | x3 | x3 | x3 | x3 | x3 | x3 | x3 | x3 | x3 | %76
 x3 | x3 | x3 | x3 | x3 | x3 | x3 | x3 | x3 | x3 | x3 | x3 | x3 | x3 | x3 | x3 | x3 | x3 | x3 | %95
 x3 | x3 | x3 | x3 | x3 | x3 | x3 | x3 | x3 | x3 | x3 | x3 | x3 | x3 | x3 | x3 | x3 | x3 | x3 | %114
 x3 | x3 | x3 | x3 | x3 | x3 | x3 | x3 | x3 | x3 | x3 | x3 | x3 | x3 | x3 | x3 | x3 | x3 | x3 | %133
 x3 | x3 | x3 | x3 | x3 | x3 | x3 | x3 | x3 | x3 | x3 | x3 | x3 | x3 | x3 | x3 | x3 | x3 | x3 | %152
 x3 | x3 | x3 | x3 | x3 | x3 | x3 | x3 | x3 | x3 | x3 | x3 | x3 | x3 | x3 | x3 | x3 | x3 | x3 | %171
 x3 | x3 | x3 | x3 | x3 | x3 | x3 | x3 | x3 | x3 | x3 | x3 | x3 | x3 | x3 | x3 | x3 | x3 | x3 | %190
 x3 | x3 | x3 | x3 | x3 | x3 | x3 | x3 | x3 | x3 | x3 | x3 | x3 | x3 | x3 | x3 | x3 | x3 | x3 | %209
 x3 | x3 | x3 | x3 | x3 | x3 | x3 |[M:2/2] x8 | x8 | x8 | x8 | x8 | x8 | x8 | x8 | x8 | x8 | x8 | %227
 x8 | x8 | x8 | x8 | x8 | x8 | x8 | x8 | x8 | x8 | x8 | x8 | x8 | x8 | x8 | x8 | x8 | x8 | x8 | %246
 x8 | x8 | x8 | x8 | x8 | x8 | x8 | x8 | x8 | x8 | x8 | x8 | x8 | x8 | x8 | x8 | x8 | x8 | x8 | %265
 x8 | x8 | x8 | x8 | x8 | x8 | x8 | x8 | x8 | x8 | x8 | x8 | x8 | x8 | x8 | x8 | x8 | x8 | x8 | %284
 x8 | x8 | x8 | x8 | x8 | x8 | x8 | x8 | x8 | x8 | x8 | x8 | x8 | x8 | x8 | x8 | x8 | x8 | %302
 (3z B,D C2 B,4 |] %303

